gama.ui.shared/icons_svg/light/display/toolbar.regular.svg

<svg height="25" viewBox="-472 -3768.755 25 25" width="25" xmlns="http://www.w3.org/2000/svg"><g fill="none"><path d="m-467.66006-3768.255h16.32c2.12076 0 3.84 1.7192 3.84 3.84v16.32c0 2.121-1.71924 3.84-3.84 3.84h-16.32c-2.12077 0-3.84-1.719-3.84-3.84v-16.32c0-2.1208 1.71923-3.84 3.84-3.84z" fill="#fff"/><path d="m-467.66006-3768.255h16.32c2.12076 0 3.84 1.7192 3.84 3.84v16.32c0 2.121-1.71924 3.84-3.84 3.84h-16.32c-2.12077 0-3.84-1.719-3.84-3.84v-16.32c0-2.1208 1.71923-3.84 3.84-3.84z" stroke="#000" stroke-linecap="round" stroke-linejoin="round" stroke-width=".25"/><path d="m-465.7223-3760.144v8.9446c0 .6454.52113 1.1666 1.1667 1.1666h10.1111c.64555 0 1.16666-.5212 1.16666-1.1666v-8.9446zm0-.7777h12.44446v-.3888c0-.6455-.52111-1.1665-1.16666-1.1665h-10.1111c-.64557 0-1.1667.521-1.1667 1.1665zm13.22224 9.7223c0 1.0734-.87111 1.9444-1.94444 1.9444h-10.1111c-1.07335 0-1.94446-.871-1.94446-1.9444v-10.1111c0-1.0735.87111-1.9445 1.94446-1.9445h10.1111c1.07333 0 1.94444.871 1.94444 1.9445zm-7-6.5023-1.70334 1.3612c-.1711.1322-.4122.1088-.54444-.0623-.13222-.1712-.10886-.4122.06224-.5442l1.94443-1.5558c.14-.1166.34222-.1166.48222 0l1.94445 1.5558c.1711.132.19444.381.0622.5442-.1322.1711-.3811.1945-.5444.0623z" fill="#66727e"/></g></svg>

<?xml version="1.0" encoding="UTF-8" standalone="no"?>
<!DOCTYPE svg PUBLIC "-//W3C//DTD SVG 1.1//EN" "http://www.w3.org/Graphics/SVG/1.1/DTD/svg11.dtd">
<svg version="1.1" xmlns="http://www.w3.org/2000/svg" xmlns:xl="http://www.w3.org/1999/xlink" xmlns:dc="http://purl.org/dc/elements/1.1/" viewBox="-472.00006 -3768.755 25 25" width="25" height="25">
  <defs/>
  <g id="SOURCES" stroke-dasharray="none" fill="none" stroke="none" fill-opacity="1" stroke-opacity="1">
    <title>SOURCES</title>
    <g id="SOURCES_Calque_2">
      <title>Calque 2</title>
      <g id="Graphic_8975">
        <path d="M -467.66006 -3768.255 L -451.34006 -3768.255 C -449.2193 -3768.255 -447.50006 -3766.5358 -447.50006 -3764.415 L -447.50006 -3748.095 C -447.50006 -3745.974 -449.2193 -3744.255 -451.34006 -3744.255 L -467.66006 -3744.255 C -469.78083 -3744.255 -471.50006 -3745.974 -471.50006 -3748.095 L -471.50006 -3764.415 C -471.50006 -3766.5358 -469.78083 -3768.255 -467.66006 -3768.255 Z" fill="white"/>
        <path d="M -467.66006 -3768.255 L -451.34006 -3768.255 C -449.2193 -3768.255 -447.50006 -3766.5358 -447.50006 -3764.415 L -447.50006 -3748.095 C -447.50006 -3745.974 -449.2193 -3744.255 -451.34006 -3744.255 L -467.66006 -3744.255 C -469.78083 -3744.255 -471.50006 -3745.974 -471.50006 -3748.095 L -471.50006 -3764.415 C -471.50006 -3766.5358 -469.78083 -3768.255 -467.66006 -3768.255 Z" stroke="black" stroke-linecap="round" stroke-linejoin="round" stroke-width=".25"/>
      </g>
      <g id="Group_8976">
        <title>to-bottom</title>
        <g id="Graphic_8977">
          <path d="M -465.7223 -3760.144 L -465.7223 -3751.1994 C -465.7223 -3750.554 -465.20117 -3750.0328 -464.5556 -3750.0328 L -454.4445 -3750.0328 C -453.79895 -3750.0328 -453.27784 -3750.554 -453.27784 -3751.1994 L -453.27784 -3760.144 Z M -465.7223 -3760.9217 L -453.27784 -3760.9217 L -453.27784 -3761.3105 C -453.27784 -3761.956 -453.79895 -3762.477 -454.4445 -3762.477 L -464.5556 -3762.477 C -465.20117 -3762.477 -465.7223 -3761.956 -465.7223 -3761.3105 Z M -452.50006 -3751.1994 C -452.50006 -3750.126 -453.37117 -3749.255 -454.4445 -3749.255 L -464.5556 -3749.255 C -465.62895 -3749.255 -466.50006 -3750.126 -466.50006 -3751.1994 L -466.50006 -3761.3105 C -466.50006 -3762.384 -465.62895 -3763.255 -464.5556 -3763.255 L -454.4445 -3763.255 C -453.37117 -3763.255 -452.50006 -3762.384 -452.50006 -3761.3105 Z M -459.50006 -3757.7017 L -461.2034 -3756.3405 C -461.3745 -3756.2083 -461.6156 -3756.2317 -461.74784 -3756.4028 C -461.88006 -3756.574 -461.8567 -3756.815 -461.6856 -3756.947 L -459.74117 -3758.5028 C -459.60117 -3758.6194 -459.39895 -3758.6194 -459.25895 -3758.5028 L -457.3145 -3756.947 C -457.1434 -3756.815 -457.12006 -3756.566 -457.2523 -3756.4028 C -457.3845 -3756.2317 -457.6334 -3756.2083 -457.7967 -3756.3405 Z" fill="#66727e"/>
        </g>
      </g>
    </g>
  </g>
</svg>
